libs/ui/packages/crypto-icons/src/svg/TNB.svg

<svg width="24" height="24" viewBox="0 0 24 24" fill="none">
<path d="M11.6985 8.89275H11.7007L11.6783 8.99025L11.4832 9.9105H11.4608L10.176 15.375H8.54175L9.852 9.9105H7.653L6.4185 15.375H4.6215L6.255 8.625H11.7548L11.6985 8.89275ZM14.8043 8.625H17.5267C19.869 8.73225 19.6508 10.2855 19.6508 10.2855H20.25L20.0325 10.9283H19.4872C19.3245 11.5178 18.2347 11.8395 18.2347 11.8395C19.4872 12 19.4332 12.9645 19.4332 12.9645H20.0325L19.869 13.6072H19.3785C19.2532 14.4997 18.462 14.9333 17.8118 15.1395C17.4185 15.2623 17.0087 15.3237 16.5968 15.3218H13.17L14.8043 8.625ZM5.49225 9.9105H3.75L4.077 8.625H5.81925L5.49225 9.9105ZM12.9532 14.625L11.5373 11.3033L12.1365 8.73225L13.5518 11.8928L12.9532 14.625ZM17.1188 11.3033C17.3138 11.3033 17.5012 11.2282 17.6385 11.0917C17.7758 10.9552 17.8538 10.7723 17.8538 10.5803C17.8538 10.3883 17.7765 10.2045 17.6385 10.0688C17.5005 9.933 17.3138 9.85725 17.1188 9.85725H16.0575L15.7313 11.3033H17.1188ZM16.752 14.0895C17.2403 14.0895 17.6362 13.7175 17.6362 13.2593C17.6362 12.8003 17.2425 12.4282 16.752 12.4282H15.4755L15.0825 14.0895H16.752Z" fill="#FFC04E"/>
</svg>

<svg width="24" height="24" viewBox="0 0 24 24" fill="none"><path fill="#ffc04e" d="M11.699 8.893h.002l-.023.097-.195.92h-.022l-1.285 5.465H8.542l1.31-5.464H7.653l-1.234 5.464H4.622l1.633-6.75h5.5zm3.105-.268h2.723c2.342.107 2.124 1.66 2.124 1.66h.599l-.218.643h-.545c-.162.59-1.252.911-1.252.911 1.252.161 1.198 1.125 1.198 1.125h.6l-.164.643h-.49c-.126.893-.917 1.326-1.567 1.533a4 4 0 0 1-1.215.182H13.17zM5.492 9.911H3.75l.327-1.286h1.742zm7.461 4.714-1.416-3.322.6-2.57 1.415 3.16zm4.166-3.322a.74.74 0 0 0 .52-.211.717.717 0 0 0 0-1.023.74.74 0 0 0-.52-.212h-1.061l-.327 1.446zm-.367 2.786c.488 0 .884-.372.884-.83 0-.459-.393-.83-.884-.83h-1.276l-.394 1.66z"/></svg>
